X:10
T:Harper's Frolic
Q:1/4=180
I:abc2nwc
M:4/4
L:1/8
K:D
AG|F2A2D2AG|F2A2D2d2|c2d2e2c2|dcde f2AG|
F2A2D2AG|F2A2D2d2|c2d2e2c2|d4d2:|
|:e2|f4de d2|g4ef e2|f4dedf|edcB A2de|
f2d2de d2|g2e2efeg|fedf e2c2|d4d2:|
